X:15
%%score 1 2
T: The Hathorne Tre.
M:6/8
L:1/8
K:Eb
V:1 clef-treble
V:2 clef-bass octave=-1
V:1
B|: G2E E2E|G2A (BA)G|A2F F2F|A2B (cB)A|
w:It was a maid of my coun-try,* As she came by a haw-thorn tree,* As
V:2
z|: [EB]6|[EB]6|[EFc]6|[EFd]6|
V:1
G2E E2E|[Ee]2e (dc)B|[Gc]2c d2B|c2=A (FG)[D_A]|
w: full of flow'rs as might be seen,* She marvell'd to see the tree so greeen.* At
V:2
[EB]3 [DB]3| [C=A]3 [GB]3| e2c B2G & E3 =E3|[F=A]2z z2[B,B]|
V:1
[EG]2E E2E| G2A (BA)G| A2F F2F| A2B (cB)A|
w: last she ask-ed of this tree,* How came this fresh-ness un-to thee,* And
V:2
[EB]6| [EB]6| [EFc]6|[EFd]6|
V:1
G2E E2E| [Ee]2[Ee] (dc)B & x3 E3| A2F F2F & F3 x3| [Ff]2e (dc)B :|| 
w:ev'-ry branch so fair and clean?* I mar-vel that you grow so green.* The
V:2
[EB]3 [EB]3| [Dc]2c BAG|F3 [EAc]3|B6 & D3 B,2x:||

